!!!ONB: MCCC : IFS0593_03 : Extracted Monophonic Melody
!!!COM: Schubert, Franz
!!!OPR: Piano Sonata in A major
!!!OMV: 3
!!!SCT: D.959
!!!ODT: 1828///
**kern
*staff1
=1
*clefG2
*k[b-e-]
*B-:
*M3/4
4bb-
4aa
4bb-
=2
4gg
8aa
8bb-
8ccc
8ddd
=3
4bb-
8ccc
8bb-
8aa
8gg
=4
4ff
4ff
4ff
=5
4ff#
4fff#
4fff#
=6
4ggg
4gg
4gg
=7
8.aa
32r
32bbb-
8aaa
8ggg
4aaa
=8
8.bbb-
32r
32ccc
8bb-
8aa
4bb-
=9
8dd
8ff
8dd
8ff
8dd
8ff
=10
8dd
8gg
8dd
8gg
8dd
8gg
=11
8dd
8ff
8dd
8ff
8dd
8ff
=12
8ee-
8ff
8ee-
8ff
8ee-
8ff
=13
8ee-
8aa
8ee-
8aa
8ee-
8aa
=14
8ee-
8bb-
8ee-
8aa
8ee-
8gg
=15
8dd
8ff
8dd
8ff
8dd
8ff
=16
8ee-
8gg
8ee-
8gg
4ee-
=17
8.bb-
32r
32aa-
8gg
8ff
4gg
=18
8.bb-
32r
32gg
8ff
8ee
4ff
=19
4ccc
8bb-
8aa-
8gg
8ff
=20
4ccc
4cc
4cc
=21
8cc
8ee-
8cc
8ee-
8cc
8ee-
=22
8ff
8aa-
8ff
8aa-
8ff
8aa-
=23
8cc
8ee-
8cc
8ee-
8cc
8ee-
=24
8dd-
8ee-
8dd-
8ee-
8dd-
8ee-
=25
8.ee-
32r
32dd-
8cc
8b-
4cc
=26
8.ee-
32r
32cc
8b-
8a
4b-
=27
4ff
8ee-
8dd-
8cc
8b-
=28
4ff
4f
4f
=29
8ff
8aa-
8ff
8aa-
8ff
8aa-
=30
8bb-
8ddd-
8bb-
8ddd-
8bb-
8ddd-
=31
8ff
8aa-
8ff
8aa-
8ff
8aa-
=32
8ff#
8aa-
8ff#
8aa-
8ff#
8aa-
=33
4aa-
4r
4r
=34
4r
4r
8r
16r
32dd-
32ff
=35
4r
4r
8r
16r
32a-
32cc
=36
4r
4r
8r
16r
32dd-
32ff
=37
4aa-
8ff#
8ff
8ee-
8dd-
=38
4ddd-
4ddd-
4ddd-
=39
2.r
=40
2.r
=41
8.f
32f
32a-
4f#
4f
=42
4e-
8f
8f#
8a-
8b-
=43
4cc
8b-
8cc
8dd-
8ee-
=44
4ff
4ff
4ff
=45
2.r
=46
2.r
=47
4aa-
8ff#
8ff
8ee-
8dd-
=48
4ee-
8dd-
8cc
8b-
8a-
=49
4aa-
8ff#
8ff
8ee-
8dd-
=50
4ddd-
4ddd-
4ddd-
=51
2.r
=52
2.r
=53
8.dd-
32dd-
32ee
4dd
4cc#
=54
4b
8cc#
8dd
8ee
8ff#
=55
4aa-
8ff#
8gg#
8aa
8bb
=56
4ddd-
4ddd-
4ddd-
=57
2.r
=58
4dd-
4dd-
4dd-
=59
4dd-
8ee
8dd
8cc#
8ee
=60
4dd
4dd
4dd
=61
4ddd
4ddd
4ddd
=62
2.r
=63
4dd
4dd
4dd
=64
4dd
8ff
8ee
8dd
8ff
=65
4dd
4dd
4dd
=66
4ddd
4ddd
4ddd
=67
4dd
4cc#
4dd
=68
4ddd
4ccc#
4ddd
=69
4bb-
4aa
4bb-
=70
4gg
8aa
8bb-
8ccc
8ddd
=71
4bb-
8ccc
8bb-
8aa
8gg
=72
4ff
4ff
4ff
=73
4ff#
4fff#
4fff#
=74
4ggg
4gg
4gg
=75
8.aa
32r
32bbb-
8aaa
8ggg
4aaa
=76
8.bbb-
32r
32ccc
8bb-
8aa
4bb-
=77
8gg
8bb-
8gg
8bb-
8gg
8bb-
=78
8gg
8ccc
8gg
8ccc
8gg
8ccc
=79
8gg
8bb-
8gg
8bb-
8gg
8bb-
=80
8aa-
8bb-
8aa-
8bb-
8aa-
8bb-
=81
8aa-
8ddd
8aa-
8ddd
8aa-
8ddd
=82
8gg
8eee-
8gg
8eee-
8gg
8eee-
=83
8aa
8ccc
8aa
8ccc
8aa
8ccc
=84
8bb-
8ddd
8bb-
8ddd
8bb-
8ddd
=85
8aa
8ccc
8aa
8ccc
8aa
8ccc
=86
8bb-
8ddd
8bb-
8ddd
8bb-
8ddd
=87
8aa
8ccc
8aa
8ccc
8aa
8ccc
=88
8bb-
8ddd
8bb-
8ddd
8bb-
8ddd
=89
8aa
8ccc
8aa
8ccc
8aa
8ccc
=90
8bb-
8ddd
8bb-
8ddd
4bb-
=91
8.bb-
32r
32aa-
8gg
8ff
4gg
=92
8.bb-
32r
32gg
8ff
8ee
4ff
=93
4ccc
8bb-
8aa-
8gg
8ff
=94
4ccc
4cc
4cc
=95
8cc
8ee-
8cc
8ee-
8cc
8ee-
=96
8ff
8aa-
8ff
8aa-
8ff
8aa-
=97
8cc
8ee-
8cc
8ee-
8cc
8ee-
=98
8dd-
8ee-
8dd-
8ee-
8dd-
8ee-
=99
8.ee-
32r
32dd-
8cc
8b-
4cc
=100
8.ee-
32r
32cc
8b-
8a
4b-
=101
4ff
8ee-
8dd-
8cc
8b-
=102
4ff
4f
4f
=103
8ff
8aa-
8ff
8aa-
8ff
8aa-
=104
8bb-
8ddd-
8bb-
8ddd-
8bb-
8ddd-
=105
8ff
8aa-
8ff
8aa-
8ff
8aa-
=106
8ff#
8aa-
8ff#
8aa-
8ff#
8aa-
=107
4aa-
4r
4r
=108
4r
4r
8r
16r
32dd-
32ff
=109
4r
4r
8r
16r
32a-
32cc
=110
4r
4r
8r
16r
32dd-
32ff
=111
4aa-
8ff#
8ff
8ee-
8dd-
=112
4ddd-
4ddd-
4ddd-
=113
2.r
=114
2.r
=115
8.f
32f
32a-
4f#
4f
=116
4e-
8f
8f#
8a-
8b-
=117
4cc
8b-
8cc
8dd-
8ee-
=118
4ff
4ff
4ff
=119
2.r
=120
2.r
=121
4aa-
8ff#
8ff
8ee-
8dd-
=122
4ee-
8dd-
8cc
8b-
8a-
=123
4aa-
8ff#
8ff
8ee-
8dd-
=124
4ddd-
4ddd-
4ddd-
=125
2.r
=126
2.r
=127
8.dd-
32dd-
32ee
4dd
4cc#
=128
4b
8cc#
8dd
8ee
8ff#
=129
4aa-
8ff#
8gg#
8aa
8bb
=130
4ddd-
4ddd-
4ddd-
=131
2.r
=132
4dd-
4dd-
4dd-
=133
4dd-
8ee
8dd
8cc#
8ee
=134
4dd
4dd
4dd
=135
4ddd
4ddd
4ddd
=136
2.r
=137
4dd
4dd
4dd
=138
4dd
8ff
8ee
8dd
8ff
=139
4dd
4dd
4dd
=140
4ddd
4ddd
4ddd
=141
4dd
4cc#
4dd
=142
4ddd
4ccc#
4ddd
=143
4bb-
4aa
4bb-
=144
4gg
8aa
8bb-
8ccc
8ddd
=145
4bb-
8ccc
8bb-
8aa
8gg
=146
4ff
4ff
4ff
=147
4ff#
4fff#
4fff#
=148
4ggg
4gg
4gg
=149
8.aa
32r
32bbb-
8aaa
8ggg
4aaa
=150
8.bbb-
32r
32ccc
8bb-
8aa
4bb-
=151
8gg
8bb-
8gg
8bb-
8gg
8bb-
=152
8gg
8ccc
8gg
8ccc
8gg
8ccc
=153
8gg
8bb-
8gg
8bb-
8gg
8bb-
=154
8aa-
8bb-
8aa-
8bb-
8aa-
8bb-
=155
8aa-
8ddd
8aa-
8ddd
8aa-
8ddd
=156
8gg
8eee-
8gg
8eee-
8gg
8eee-
=157
8aa
8ccc
8aa
8ccc
8aa
8ccc
=158
8bb-
8ddd
8bb-
8ddd
8bb-
8ddd
=159
8aa
8ccc
8aa
8ccc
8aa
8ccc
=160
8bb-
8ddd
8bb-
8ddd
8bb-
8ddd
=161
8aa
8ccc
8aa
8ccc
8aa
8ccc
=162
8bb-
8ddd
8bb-
8ddd
8bb-
8ddd
=163
8aa
8ccc
8aa
8ccc
8aa
8ccc
=164
4ddd
4r
4r
=165
2f
4f[
=166
4f]
4f
4f
=167
2f
4f[
=168
4f]
4f
4f
=169
2f
4f[
=170
4f]
4f
4f
=171
2f
4f[
=172
4f]
4a-
4a-
=173
2f
4f[
=174
4f]
4r
4r
=175
2f
4f[
=176
4f]
4f
4f
=177
2f
4f[
=178
4f]
4f
4f
=179
2f
4f[
=180
4f]
4f
4f
=181
2f
4f[
=182
4f]
4a-
4a-
=183
2f
4f[
=184
4f]
4r
4r
=185
2f#
4f#[
=186
4f#]
4a-
4b-
=187
2f
4f[
=188
4f]
4e
4e
=189
2e-
4e-[
=190
4e-]
4e-
4e-
=191
2a-
4a-
=192
4a
4f
4f
=193
2dd-
4dd-[
=194
4dd-]
4cc
4b-
=195
2a
4a[
=196
4a]
4b-
4cc
=197
2f
4f[
=198
4f]
4f
4f
=199
2f
4f[
=200
4f]
4e-
4e-
=201
2d-
4d-[
=202
4d-]
4r
4r
=203
2f#
4f#[
=204
4f#]
4a-
4b-
=205
2f
4f[
=206
4f]
4e
4e
=207
2e-
4e-[
=208
4e-]
4e-
4e-
=209
2a-
4a-
=210
4a
4f
4f
=211
2dd-
4dd-[
=212
4dd-]
4cc
4b-
=213
2a
4a[
=214
4a]
4b-
4cc
=215
2f
4f[
=216
4f]
4f
4f
=217
2f
4f[
=218
4f]
4e-
4e-
=219
2d-
4d-
=220
2d-
4d-[
=221
4d-]
4r
4r
=222
4bb-
4aa
4bb-
=223
4gg
8aa
8bb-
8ccc
8ddd
=224
4bb-
8ccc
8bb-
8aa
8gg
=225
4ff
4ff
4ff
=226
4ff#
4fff#
4fff#
=227
4ggg
4gg
4gg
=228
8.aa
32r
32bbb-
8aaa
8ggg
4aaa
=229
8.bbb-
32r
32ccc
8bb-
8aa
4bb-
=230
8dd
8ff
8dd
8ff
8dd
8ff
=231
8dd
8gg
8dd
8gg
8dd
8gg
=232
8dd
8ff
8dd
8ff
8dd
8ff
=233
8ee-
8ff
8ee-
8ff
8ee-
8ff
=234
8ee-
8aa
8ee-
8aa
8ee-
8aa
=235
8ee-
8bb-
8ee-
8aa
8ee-
8gg
=236
8dd
8ff
8dd
8ff
8dd
8ff
=237
8ee-
8gg
8ee-
8gg
4ee-
=238
8.bb-
32r
32aa-
8gg
8ff
4gg
=239
8.bb-
32r
32gg
8ff
8ee
4ff
=240
4ccc
8bb-
8aa-
8gg
8ff
=241
4ccc
4cc
4cc
=242
8cc
8ee-
8cc
8ee-
8cc
8ee-
=243
8ff
8aa-
8ff
8aa-
8ff
8aa-
=244
8cc
8ee-
8cc
8ee-
8cc
8ee-
=245
8dd-
8ee-
8dd-
8ee-
8dd-
8ee-
=246
8.ee-
32r
32dd-
8cc
8b-
4cc
=247
8.ee-
32r
32cc
8b-
8a
4b-
=248
4ff
8ee-
8dd-
8cc
8b-
=249
4ff
4f
4f
=250
8ff
8aa-
8ff
8aa-
8ff
8aa-
=251
8bb-
8ddd-
8bb-
8ddd-
8bb-
8ddd-
=252
8ff
8aa-
8ff
8aa-
8ff
8aa-
=253
8ff#
8aa-
8ff#
8aa-
8ff#
8aa-
=254
4aa-
4r
4r
=255
4r
4r
8r
16r
32dd-
32ff
=256
4r
4r
8r
16r
32a-
32cc
=257
4r
4r
8r
16r
32dd-
32ff
=258
4aa-
8ff#
8ff
8ee-
8dd-
=259
4ddd-
4ddd-
4ddd-
=260
2.r
=261
2.r
=262
8.f
32f
32a-
4f#
4f
=263
4e-
8f
8f#
8a-
8b-
=264
4cc
8b-
8cc
8dd-
8ee-
=265
4ff
4ff
4ff
=266
2.r
=267
2.r
=268
4aa-
8ff#
8ff
8ee-
8dd-
=269
4ee-
8dd-
8cc
8b-
8a-
=270
4aa-
8ff#
8ff
8ee-
8dd-
=271
4ddd-
4ddd-
4ddd-
=272
2.r
=273
2.r
=274
8.dd-
32dd-
32ee
4dd
4cc#
=275
4b
8cc#
8dd
8ee
8ff#
=276
4aa-
8ff#
8gg#
8aa
8bb
=277
4ddd-
4ddd-
4ddd-
=278
2.r
=279
4dd-
4dd-
4dd-
=280
4dd-
8ee
8dd
8cc#
8ee
=281
4dd
4dd
4dd
=282
4ddd
4ddd
4ddd
=283
2.r
=284
4dd
4dd
4dd
=285
4dd
8ff
8ee
8dd
8ff
=286
4dd
4dd
4dd
=287
4ddd
4ddd
4ddd
=288
4dd
4cc#
4dd
=289
4ddd
4ccc#
4ddd
=290
4bb-
4aa
4bb-
=291
4gg
8aa
8bb-
8ccc
8ddd
=292
4bb-
8ccc
8bb-
8aa
8gg
=293
4ff
4ff
4ff
=294
4ff#
4fff#
4fff#
=295
4ggg
4gg
4gg
=296
8.aa
32r
32bbb-
8aaa
8ggg
4aaa
=297
8.bbb-
32r
32ccc
8bb-
8aa
4bb-
=298
8gg
8bb-
8gg
8bb-
8gg
8bb-
=299
8gg
8ccc
8gg
8ccc
8gg
8ccc
=300
8gg
8bb-
8gg
8bb-
8gg
8bb-
=301
8aa-
8bb-
8aa-
8bb-
8aa-
8bb-
=302
8aa-
8ddd
8aa-
8ddd
8aa-
8ddd
=303
8gg
8eee-
8gg
8eee-
8gg
8eee-
=304
8aa
8ccc
8aa
8ccc
8aa
8ccc
=305
8bb-
8ddd
8bb-
8ddd
8bb-
8ddd
=306
8aa
8ccc
8aa
8ccc
8aa
8ccc
=307
8bb-
8ddd
8bb-
8ddd
8bb-
8ddd
=308
8aa
8ccc
8aa
8ccc
8aa
8ccc
=309
8bb-
8ddd
8bb-
8ddd
8bb-
8ddd
=310
8aa
8ccc
8aa
8ccc
8aa
8ccc
=311
4ddd
4r
4r
=312
4ddd
4r
4r
=313
2.ddd[
=314
4ddd]
4r
4r
==
*-
